docs/src/images/slack.svg

<svg width="99" height="25" viewBox="0 0 99 25" fill="none" xmlns="http://www.w3.org/2000/svg">
<path d="M32.3661 19.5866L33.5866 16.752C34.9055 17.7362 36.6574 18.248 38.3897 18.248C39.6692 18.248 40.4763 17.7559 40.4763 17.0079C40.4566 14.9213 32.8188 16.5551 32.7598 11.3189C32.7401 8.66142 35.1023 6.61417 38.4488 6.61417C40.437 6.61417 42.4251 7.1063 43.8425 8.22835L42.7007 11.122C41.4015 10.2953 39.7873 9.70472 38.2519 9.70472C37.2086 9.70472 36.5196 10.1969 36.5196 10.8268C36.5393 12.874 44.2362 11.752 44.3149 16.752C44.3149 19.4685 42.0118 21.378 38.7047 21.378C36.2834 21.378 34.059 20.8071 32.3661 19.5866ZM79.1968 15.7283C78.5866 16.7913 77.4448 17.5197 76.1259 17.5197C74.1771 17.5197 72.6023 15.9449 72.6023 13.9961C72.6023 12.0472 74.1771 10.4724 76.1259 10.4724C77.4448 10.4724 78.5866 11.2008 79.1968 12.2638L82.5629 10.3937C81.3031 8.14961 78.8818 6.61417 76.1259 6.61417C72.0511 6.61417 68.744 9.92126 68.744 13.9961C68.744 18.0709 72.0511 21.378 76.1259 21.378C78.9015 21.378 81.3031 19.8622 82.5629 17.5984L79.1968 15.7283ZM46.0078 0.492126H50.2204V21.1024H46.0078V0.492126ZM84.2165 0.492126V21.1024H88.4291V14.9213L93.4291 21.1024H98.8228L92.4645 13.7598L98.3503 6.90945H93.1929L88.4291 12.5984V0.492126H84.2165ZM62.7401 15.7677C62.1299 16.7717 60.87 17.5197 59.4527 17.5197C57.5039 17.5197 55.9291 15.9449 55.9291 13.9961C55.9291 12.0472 57.5039 10.4724 59.4527 10.4724C60.87 10.4724 62.1299 11.2598 62.7401 12.2835V15.7677ZM62.7401 6.90945V8.58268C62.0511 7.42126 60.3385 6.61417 58.5472 6.61417C54.8464 6.61417 51.933 9.88189 51.933 13.9764C51.933 18.0709 54.8464 21.378 58.5472 21.378C60.3385 21.378 62.0511 20.5709 62.7401 19.4094V21.0827H66.9527V6.90945H62.7401Z" fill="white"/>
<path d="M6.32283 15.748C6.32283 17.185 5.16141 18.3464 3.7244 18.3464C2.28739 18.3464 1.12598 17.185 1.12598 15.748C1.12598 14.311 2.28739 13.1496 3.7244 13.1496H6.32283V15.748ZM7.62204 15.748C7.62204 14.311 8.78346 13.1496 10.2205 13.1496C11.6575 13.1496 12.8189 14.311 12.8189 15.748V22.2441C12.8189 23.6811 11.6575 24.8425 10.2205 24.8425C8.78346 24.8425 7.62204 23.6811 7.62204 22.2441V15.748Z" fill="#E01E5A"/>
<path d="M10.2205 5.31495C8.78349 5.31495 7.62207 4.15354 7.62207 2.71653C7.62207 1.27952 8.78349 0.118103 10.2205 0.118103C11.6575 0.118103 12.8189 1.27952 12.8189 2.71653V5.31495H10.2205ZM10.2205 6.63385C11.6575 6.63385 12.8189 7.79527 12.8189 9.23228C12.8189 10.6693 11.6575 11.8307 10.2205 11.8307H3.70475C2.26774 11.8307 1.10632 10.6693 1.10632 9.23228C1.10632 7.79527 2.26774 6.63385 3.70475 6.63385H10.2205Z" fill="#36C5F0"/>
<path d="M20.6339 9.23228C20.6339 7.79527 21.7953 6.63385 23.2323 6.63385C24.6693 6.63385 25.8307 7.79527 25.8307 9.23228C25.8307 10.6693 24.6693 11.8307 23.2323 11.8307H20.6339V9.23228ZM19.3347 9.23228C19.3347 10.6693 18.1732 11.8307 16.7362 11.8307C15.2992 11.8307 14.1378 10.6693 14.1378 9.23228V2.71653C14.1378 1.27952 15.2992 0.118103 16.7362 0.118103C18.1732 0.118103 19.3347 1.27952 19.3347 2.71653V9.23228Z" fill="#2EB67D"/>
<path d="M16.7362 19.6457C18.1733 19.6457 19.3347 20.8071 19.3347 22.2441C19.3347 23.6811 18.1733 24.8425 16.7362 24.8425C15.2992 24.8425 14.1378 23.6811 14.1378 22.2441V19.6457H16.7362ZM16.7362 18.3464C15.2992 18.3464 14.1378 17.185 14.1378 15.748C14.1378 14.311 15.2992 13.1496 16.7362 13.1496H23.252C24.689 13.1496 25.8504 14.311 25.8504 15.748C25.8504 17.185 24.689 18.3464 23.252 18.3464H16.7362Z" fill="#ECB22E"/>
</svg>

<svg width="99" height="25" viewBox="0 0 99 25" fill="none" xmlns="http://www.w3.org/2000/svg"><path d="M32.366 19.587l1.22-2.835c1.32.984 3.071 1.496 4.804 1.496 1.28 0 2.086-.492 2.086-1.24-.02-2.087-7.657-.453-7.716-5.69-.02-2.657 2.342-4.704 5.689-4.704 1.988 0 3.976.492 5.394 1.614L42.7 11.122c-1.3-.827-2.914-1.417-4.45-1.417-1.042 0-1.731.492-1.731 1.122.02 2.047 7.716.925 7.795 5.925 0 2.716-2.303 4.626-5.61 4.626-2.422 0-4.646-.57-6.339-1.791zm46.83-3.859a3.542 3.542 0 0 1-3.07 1.792 3.52 3.52 0 0 1-3.524-3.524 3.52 3.52 0 0 1 3.524-3.524 3.54 3.54 0 0 1 3.07 1.792l3.367-1.87c-1.26-2.244-3.681-3.78-6.437-3.78a7.385 7.385 0 0 0-7.382 7.382 7.385 7.385 0 0 0 7.382 7.382 7.338 7.338 0 0 0 6.437-3.78l-3.366-1.87zM46.009.492h4.212v20.61h-4.212V.492zm38.208 0v20.61h4.213v-6.18l5 6.18h5.394l-6.358-7.342 5.885-6.85h-5.157l-4.764 5.688V.492h-4.213zM62.74 15.768c-.61 1.004-1.87 1.752-3.287 1.752a3.52 3.52 0 0 1-3.524-3.524 3.52 3.52 0 0 1 3.524-3.524c1.417 0 2.677.788 3.287 1.812v3.484zm0-8.859v1.674c-.689-1.162-2.401-1.969-4.193-1.969-3.7 0-6.614 3.268-6.614 7.362 0 4.095 2.913 7.402 6.614 7.402 1.792 0 3.504-.807 4.193-1.969v1.674h4.213V6.909H62.74z" fill="#fff"/><path d="M6.323 15.748a2.596 2.596 0 0 1-2.599 2.598 2.596 2.596 0 0 1-2.598-2.598 2.596 2.596 0 0 1 2.598-2.598h2.599v2.598zm1.299 0a2.596 2.596 0 0 1 2.598-2.598 2.596 2.596 0 0 1 2.599 2.598v6.496a2.596 2.596 0 0 1-2.599 2.599 2.596 2.596 0 0 1-2.598-2.599v-6.496z" fill="#E01E5A"/><path d="M10.22 5.315a2.596 2.596 0 0 1-2.598-2.598A2.596 2.596 0 0 1 10.22.118a2.596 2.596 0 0 1 2.599 2.599v2.598H10.22zm0 1.319a2.596 2.596 0 0 1 2.599 2.598 2.596 2.596 0 0 1-2.599 2.599H3.705a2.596 2.596 0 0 1-2.599-2.599 2.596 2.596 0 0 1 2.599-2.598h6.515z" fill="#36C5F0"/><path d="M20.634 9.232a2.596 2.596 0 0 1 2.598-2.598 2.596 2.596 0 0 1 2.599 2.598 2.596 2.596 0 0 1-2.599 2.599h-2.598V9.232zm-1.3 0a2.596 2.596 0 0 1-2.598 2.599 2.596 2.596 0 0 1-2.598-2.599V2.717A2.596 2.596 0 0 1 16.736.118a2.596 2.596 0 0 1 2.599 2.599v6.515z" fill="#2EB67D"/><path d="M16.736 19.646a2.596 2.596 0 0 1 2.599 2.598 2.596 2.596 0 0 1-2.599 2.599 2.596 2.596 0 0 1-2.598-2.599v-2.598h2.598zm0-1.3a2.596 2.596 0 0 1-2.598-2.598 2.596 2.596 0 0 1 2.598-2.598h6.516a2.596 2.596 0 0 1 2.598 2.598 2.596 2.596 0 0 1-2.598 2.598h-6.516z" fill="#ECB22E"/></svg>
